X:190 
T:Shores of Ballybunion (reel), The 
F:file ID: cre.5/190shores
B:CRE5.128 (CladaÃÂÃÂÃÂÃÂ­ Bhaile An BhuinneÃÂÃÂÃÂÃÂ¡naigh)
M:4/4
Q:180
R:reel
K:G
(3DEF|G2BG DGBG|G2Bd gdBA|BGAG FGAB|cDEF BGAF|
G2BG DGBG|G2Bd gdBA|BGAG FGAB|cGEF G2 :|
ef|gfga gdBd|gfga bgef|gfga gdBc|dedc BGAF|
gfga gdBd|gfga bgeg|bgaf gfed|egfa g2:|


%%%

